swiss/communes/4310.svg

<svg xmlns="http://www.w3.org/2000/svg" version="1.0" width="687" height="768" viewBox="-2.381 -2.381 84.138 94.038"><defs><clipPath id="a"><path d="M354.48 310.32h63.71v-71.63h-63.71v71.63z"/></clipPath><clipPath id="b"><path d="M354.48 310.32h63.71v-71.63h-63.71v71.63z"/></clipPath></defs><g clip-path="url(#a)" transform="matrix(1.25 0 0 1.25 -443.238 -298.487)"><path d="M354.59 238.79h63.5v41.31l-.17 1.61-.17 1.57-.28 1.57-.39 1.57-.4 1.51-.5 1.46-.56 1.45-.67 1.4-.67 1.34-.78 1.34-.79 1.29-.89 1.23-.96 1.23-1.01 1.13-1.05 1.12-1.07 1.06-1.18.95-1.17.95-1.29.9-1.29.84-1.29.73-1.4.72-1.4.62-1.45.55-1.46.51-1.51.45-1.52.33-1.56.28-1.62.23-1.57.11-1.68.06-1.63-.06-1.62-.11-1.57-.23-1.56-.28-1.52-.33-1.51-.45-1.51-.51-1.4-.55-1.4-.62-1.4-.72-1.34-.73-1.29-.84-1.23-.9-1.18-.95-1.18-.95-1.05-1.06-1.07-1.12-1.01-1.13-.95-1.23-.9-1.23-.79-1.29-.78-1.34-.72-1.34-.62-1.4-.56-1.45-.5-1.46-.45-1.51-.34-1.57-.28-1.57-.22-1.57-.12-1.61-.05-1.63v-39.68z" style="fill:#000;fill-opacity:1;fill-rule:evenodd;stroke:none"/></g><g clip-path="url(#b)" transform="matrix(1.25 0 0 1.25 -443.238 -298.487)"><path d="M375.7 306.85h0l.17-.5.23-.46h0l.22-.44h0l.44-.56h0l.73-1.01h0l.4-.39.33-.34.84-.67h0l.56-.45h0l1.06-.67 1.07-.67h0l.33-.17.34-.22h0l.95-.79h0l.23-.16.16-.17h0l.22-.22h0l.34-.29.28-.28h0l.56-.66h0l.51-.62.5-.62h0l.4-.61.44-.73h0l.84-1.35h0l.28-.55.28-.56h0l.61-1.01.73-.9h0l.4-.55h0l.5-.56.56-.51h0l1.01-.84.5-.39.57-.33h0l.61-.29.67-.33h0l1.01-.56.95-.56h0l.33-.22.29-.18h0l.73-.66h0l.5-.34.39-.39h0l1.18-1.46h0l.33-.44.28-.46h0l.61-1.06h0l1.41.34h0l.84.22h0l1 .17h0l.62.11.62.06h1.57l.66-.06.73-.11.68-.11.66-.17h0l.57-.17.56-.22 1.12-.5h0l.45-.17.39-.12h0l.95-.16h0l.5-.12h1.12l.51.12.55.16h0l-.11 1.46-.21 1.51-.23 1.46-.34 1.4-.39 1.39-.45 1.41-.5 1.34-.56 1.34-.68 1.29-.66 1.23-.73 1.17-.84 1.18-.84 1.18-.9 1.06-.95 1.06-1.01 1.01-1.07.95-1.06.9-1.12.84-1.17.78-1.18.79-1.29.66-1.22.62-1.35.62-1.35.5-1.34.45-1.4.39-1.46.33-1.45.23-1.46.17-1.51.11-1.51.05h0l-1.4-.05-1.34-.06-1.41-.16-1.34-.23-1.34-.28-1.29-.33-1.29-.39-1.23-.45h0zM356.05 280.32h0l.84-.17h.39l.73.06.72.11.73.16.68.23h0l1 .45h0l.5.17h0l.23.05h0l1.01.17 1.01.16H366.24l.44-.05.51-.06.89-.22h0l1.57-.33 1.52-.45h0l2.01-.39h0l.62-.17.56-.06h1.62l.78.12h0l.51.05h0l2.3.5 2.23.62h0v.06h0l-.72.44-.73.51h0l-.23.22-.22.23h0l-.11.1h0l-.34.4h0l-.72.84h0l-.34.5-.4.56h0l-.5.84-1.01 1.74h0l-.5.84-.22.39-.34.39h0l-.5.5h0l-.28.28h0l-.45.34h0l-.23.22-.27.17h0l-.68.33h0l-.84.45-.89.39h0l-.95.45h0l-.29.12h0l-.95.61-.95.61h0l-.17.18h0l-.22.05h0l-.39.34h0l-.5.5-.51.56-.45.56-.45.56h0l-.05.16h0l-.45.79h0l-.22.28h0l-.17.28h0l-.45.9-.05.05h0l-.84-.95-.79-1.01-.79-1-.72-1.07-.67-1.06-.62-1.12-.56-1.18-.56-1.11-.5-1.24-.4-1.23-.38-1.23-.34-1.23-.28-1.28-.22-1.35-.23-1.29-.11-1.34h0zM414.11 253.4h0l-.45-1.91h0l-1.11.45-1.12.39-1.18.34-1.24.28-1.34.22-1.46.23-1.61.17-1.86.16h0-24.85v-4.47h-2.19v4.31h0l1.63 1.67h0l15.12.11h11.69l1.63-.11 1.46-.17 1.39-.16 1.29-.23 1.18-.22 1.12-.28 1-.39.9-.39h0zm-45.75 10.24h0l-.55.22-.62.17-.62.06h-.62l-.66-.11-.68-.12-1.39-.44-1.52-.51-.84-.22-.84-.23-.95-.16-.95-.12-1.01-.05h-1.12v-21.94h60.69v15.67h0l-.05 2.97v2.97h0l-1.06-.29-1.01-.16h0l-1.35-.06h0l-.55.06-.68.11-1.18.27h0l-.78.28-.78.34h0l-.84.34-.78.39h0l-.73.22h0l-.73.23h0l-.5.11-.51.05-1.01.06h0l.4-.45 1.01-1.06 2.91-3.14 4.42-4.64h0l-1.12.28-1.12.22-1.18.23-1.11.16-2.36.23-2.29.11h0l-25.81.06h0l8.22 8.05h-.33 0l-9.74-9.62-9.13-9.01 1.34-1.35-1.23-1.22-3.7 3.58 1.29 1.23 1.29-1.34h0l17.86 17.62h0-.11l-.11-.05h0l-8.17-7.84h0l-3.87-.11-4.59-.11h0l-3.3-.17h0l-.73-.11-1.01-.23-1.07-.27-.5-.12-.39-.17h0l4.2 4.48 4.25 4.65h0zm6.61-8.34-1.57-1.57h0l-2.35.06-2.18-.06-1.12-.05-1.07-.06h0l-2.23-.22-1.02-.17-.83-.17-.84-.22-.78-.29-.73-.39-.79-.56h0l-.95 1.41h0l.45.33.45.28.5.28.45.22 1 .34 1.07.28 1 .17 1.02.11 1.9.17h0l4.48.05 4.14.06h0z" style="fill:#fcdb00;fill-opacity:1;fill-rule:evenodd;stroke:#fcdb00;stroke-width:.12;stroke-linecap:round;stroke-linejoin:round;stroke-miterlimit:10;stroke-dasharray:none;stroke-opacity:1"/><path d="M364.89 299.85h0l.45-.78.45-.79h0l.45-.73h0l.5-.84.56-.72.62-.67.39-.34.39-.28h0l1.01-.67 1.01-.56h0l1-.45h0l1.46-.67h0l.78-.39h0l.4-.23.5-.38.45-.4.39-.28h0l.4-.56h0l.38-.44.34-.46h0l.28-.44.28-.45h0l1.12-1.96h0l.51-.84h0l.44-.61.51-.68h0l.67-.72.33-.39.39-.34h0l.84-.56.45-.22.45-.17h0l.39-.17.39-.06.4-.11.39-.16h0l.61-.28.57-.4h0l.44-.39h0l-.67.17h0l-.56.12H383.37l-1.18-.18-1.05-.27h0l-1.02-.28-.95-.34h0l-1.06-.22-1.01-.18h0l-.95-.1h0l-.67-.06h0-.84l-.9.11-.84.17-.84.17h0l-2.24.55-2.24.51h0l-.72.17h0l-1.23.05h-1.3 0l-.84-.05-.89-.23-.84-.22-.84-.28h0l-1.24-.45h0l-1-.28-.5-.11-.51-.05h0-.84l-.84.05h0V263.08h0l.28-.06H357.23l.66.12.5.05h0l1.29.28 1.3.33h0l1.29.46.66.22.62.22h0l1.01.22.95.12.95.06h.51l.5-.06h0l.61-.12.57-.16h0l3.91-1.23h0l1.24-.39 1.28-.29h0l.4-.11.39-.1h1.9l.45.05h0l.95.22h0l.73.17.67.28 1.29.5h0l.62.23.61.17 1.29.22h0l.33.28.29.34h0l.22.33.28.39h0l.61.95.28.51.23.56h0l.22.61.17.67h0l.06.23.05.28h0l4.76 4.7 3.42 3.47 1.96 1.96h0l.22-.17.45-.39 1.29-1.24 1.95-1.89h0l-5.2-4.88-5.27-4.8h0-.33l-.39-.06-.39-.12-.45-.22-1.07-.62-1.34-.84h0l.95-.11h0l1.18-.22h0l.73-.11h0l.67-.17.67-.17 1.34-.39h0l.84-.17h0l.45-.11.45-.12h.44l.68-.05h.73l.56.05.56.12 1.12.34h0l2.07.61h0l.89.28.84.28.9.17.45.11h.95l.84-.05.79-.06h0l.84-.23.84-.27 1.56-.62h0l.89-.34h0l.9-.28.9-.28h0l.67-.1h0l.39-.06h1.79l.51.06h0l.73.21.61.17h0l.22.06V278.53h0-1.06l-.5-.06-.45.06h0l-.67.11h0l-.79.11-.78.23h0l-1.17.39-1.12.45h0l-.56.22-.57.11-1.12.17h0l-.44.05-.45.06h0-.61 0l-1.01-.06h0l-.67-.05-.62-.11h0l-.95-.11-.9-.23-.89-.23-.9-.22h0l-.12.45-.16.45-.22.44-.28.45h0l-.34.45h0l-.39.51h0l-.4.5h0l-.61.61-.62.62h0l-.5.33-.5.34-1.01.67h0l-.56.34-.56.34h0l-.73.33-.68.33-.72.34-.62.45h0l-.39.39h0l-.5.39-.45.4h0l-.34.33-.22.33h0l-.45.51h0l-.5.79-.51.84h0l-.39.55h0l-.45.9-.5.89h0l-.5.79h0l-.9 1.34h0l-.56.78-.61.73h0l-.34.34-.34.34-.72.61h0l-.62.56-.62.45h0l-.61.33-.61.34h0l-.73.39-.74.5h0l-.1.11h0l-.34.28h0l-.34.23-.34.22h0l-.44.39h0l-.39.4h0l-.51.56-.39.56h0l-.56.84h0l-.39.84-.39.84h0l-1.4-.62-1.29-.67-1.29-.78-1.23-.79-1.23-.84-1.12-.89-1.13-1.01-1.06-1.01h0z" style="fill:#0093dd;fill-opacity:1;fill-rule:evenodd;stroke:#0093dd;stroke-width:.12;stroke-linecap:round;stroke-linejoin:round;stroke-miterlimit:10;stroke-dasharray:none;stroke-opacity:1"/></g></svg>

<?xml version="1.0" encoding="UTF-8" standalone="no"?>
<!DOCTYPE svg PUBLIC "-//W3C//DTD SVG 1.0//EN" "http://www.w3.org/TR/2001/REC-SVG-20010904/DTD/svg10.dtd">
<!-- Created with Inkscape (http://www.inkscape.org/) by Marsupilami -->
<svg
   xmlns:svg="http://www.w3.org/2000/svg"
   xmlns="http://www.w3.org/2000/svg"
   version="1.0"
   width="687"
   height="768"
   viewBox="-2.38125 -2.38125 84.1375 94.037502"
   id="svg4173">
  <defs
     id="defs4175">
    <clipPath
       id="clipPath2866">
      <path
         d="M 354.48,310.32 L 418.19,310.32 L 418.19,238.69 L 354.48,238.69 L 354.48,310.32 z"
         id="path2868" />
    </clipPath>
    <clipPath
       id="clipPath2878">
      <path
         d="M 354.48,310.32 L 418.19,310.32 L 418.19,238.69 L 354.48,238.69 L 354.48,310.32 z"
         id="path2880" />
    </clipPath>
  </defs>
  <g
     transform="translate(-335.3125,-487.72468)"
     id="layer1">
    <g
       transform="matrix(1.25,0,0,1.25,-107.925,189.23718)"
       id="g2862">
      <g
         clip-path="url(#clipPath2866)"
         id="g2864">
        <g
           id="g2870">
          <path
             d="M 354.59,238.79 L 418.09,238.79 L 418.09,278.47 L 418.09,278.47 L 418.09,280.1 L 417.92,281.71 L 417.75,283.28 L 417.47,284.85 L 417.08,286.42 L 416.68,287.93 L 416.18,289.39 L 415.62,290.84 L 414.95,292.24 L 414.28,293.58 L 413.5,294.92 L 412.71,296.21 L 411.82,297.44 L 410.86,298.67 L 409.85,299.8 L 408.8,300.92 L 407.73,301.98 L 406.55,302.93 L 405.38,303.88 L 404.09,304.78 L 402.8,305.62 L 401.51,306.35 L 400.11,307.07 L 398.71,307.69 L 397.26,308.24 L 395.8,308.75 L 394.29,309.2 L 392.77,309.53 L 391.21,309.81 L 389.59,310.04 L 388.02,310.15 L 386.34,310.21 L 386.34,310.21 L 384.71,310.15 L 383.09,310.04 L 381.52,309.81 L 379.96,309.53 L 378.44,309.2 L 376.93,308.75 L 375.42,308.24 L 374.02,307.69 L 372.62,307.07 L 371.22,306.35 L 369.88,305.62 L 368.59,304.78 L 367.36,303.88 L 366.18,302.93 L 365,301.98 L 363.95,300.92 L 362.88,299.8 L 361.87,298.67 L 360.92,297.44 L 360.02,296.21 L 359.23,294.92 L 358.45,293.58 L 357.73,292.24 L 357.11,290.84 L 356.55,289.39 L 356.05,287.93 L 355.6,286.42 L 355.26,284.85 L 354.98,283.28 L 354.76,281.71 L 354.64,280.1 L 354.59,278.47 L 354.59,238.79 z"
             id="path2872"
             style="fill:#000000;fill-opacity:1;fill-rule:evenodd;stroke:none" />
        </g>
      </g>
    </g>
    <g
       transform="matrix(1.25,0,0,1.25,-107.925,189.23718)"
       id="g2874">
      <g
         clip-path="url(#clipPath2878)"
         id="g2876">
        <path
           d="M 375.7,306.85 L 375.7,306.85 L 375.87,306.35 L 376.1,305.89 L 376.1,305.89 L 376.32,305.45 L 376.32,305.45 L 376.76,304.89 L 376.76,304.89 L 377.49,303.88 L 377.49,303.88 L 377.89,303.49 L 378.22,303.15 L 379.06,302.48 L 379.06,302.48 L 379.62,302.03 L 379.62,302.03 L 380.68,301.36 L 381.75,300.69 L 381.75,300.69 L 382.08,300.52 L 382.42,300.3 L 382.42,300.3 L 383.37,299.51 L 383.37,299.51 L 383.6,299.35 L 383.76,299.18 L 383.76,299.18 L 383.98,298.96 L 383.98,298.96 L 384.32,298.67 L 384.6,298.39 L 384.6,298.39 L 385.16,297.73 L 385.16,297.73 L 385.67,297.11 L 386.17,296.49 L 386.17,296.49 L 386.57,295.88 L 387.01,295.15 L 387.01,295.15 L 387.85,293.8 L 387.85,293.8 L 388.13,293.25 L 388.41,292.69 L 388.41,292.69 L 389.02,291.68 L 389.75,290.78 L 389.75,290.78 L 390.15,290.23 L 390.15,290.23 L 390.65,289.67 L 391.21,289.16 L 391.21,289.16 L 392.22,288.32 L 392.72,287.93 L 393.29,287.6 L 393.29,287.6 L 393.9,287.31 L 394.57,286.98 L 394.57,286.98 L 395.58,286.42 L 396.53,285.86 L 396.53,285.86 L 396.86,285.64 L 397.15,285.46 L 397.15,285.46 L 397.88,284.8 L 397.88,284.8 L 398.38,284.46 L 398.77,284.07 L 398.77,284.07 L 399.95,282.61 L 399.95,282.61 L 400.28,282.17 L 400.56,281.71 L 400.56,281.71 L 401.17,280.65 L 401.17,280.65 L 402.58,280.99 L 402.58,280.99 L 403.42,281.21 L 403.42,281.21 L 404.42,281.38 L 404.42,281.38 L 405.04,281.49 L 405.66,281.55 L 405.66,281.55 L 406.44,281.55 L 407.23,281.55 L 407.23,281.55 L 407.89,281.49 L 408.62,281.38 L 409.3,281.27 L 409.96,281.1 L 409.96,281.1 L 410.53,280.93 L 411.09,280.71 L 412.21,280.21 L 412.21,280.21 L 412.66,280.04 L 413.05,279.92 L 413.05,279.92 L 414,279.76 L 414,279.76 L 414.5,279.64 L 414.5,279.64 L 414.89,279.64 L 415.23,279.64 L 415.23,279.64 L 415.62,279.64 L 415.62,279.64 L 416.13,279.76 L 416.68,279.92 L 416.68,279.92 L 416.57,281.38 L 416.36,282.89 L 416.13,284.35 L 415.79,285.75 L 415.4,287.14 L 414.95,288.55 L 414.45,289.89 L 413.89,291.23 L 413.21,292.52 L 412.55,293.75 L 411.82,294.92 L 410.98,296.1 L 410.14,297.28 L 409.24,298.34 L 408.29,299.4 L 407.28,300.41 L 406.21,301.36 L 405.15,302.26 L 404.03,303.1 L 402.86,303.88 L 401.68,304.67 L 400.39,305.33 L 399.17,305.95 L 397.82,306.57 L 396.47,307.07 L 395.13,307.52 L 393.73,307.91 L 392.27,308.24 L 390.82,308.47 L 389.36,308.64 L 387.85,308.75 L 386.34,308.8 L 386.34,308.8 L 384.94,308.75 L 383.6,308.69 L 382.19,308.53 L 380.85,308.3 L 379.51,308.02 L 378.22,307.69 L 376.93,307.3 L 375.7,306.85 L 375.7,306.85 z"
           id="path2882"
           style="fill:#fcdb00;fill-opacity:1;fill-rule:evenodd;stroke:#fcdb00;stroke-width:0.12;stroke-linecap:round;stroke-linejoin:round;stroke-miterlimit:10;stroke-dasharray:none;stroke-opacity:1" />
        <path
           d="M 356.05,280.32 L 356.05,280.32 L 356.89,280.15 L 356.89,280.15 L 357.28,280.15 L 357.28,280.15 L 358.01,280.21 L 358.73,280.32 L 359.46,280.48 L 360.14,280.71 L 360.14,280.71 L 361.14,281.16 L 361.14,281.16 L 361.64,281.33 L 361.64,281.33 L 361.87,281.38 L 361.87,281.38 L 362.88,281.55 L 363.89,281.71 L 363.89,281.71 L 364.5,281.71 L 365.06,281.71 L 365.06,281.71 L 366.24,281.71 L 366.24,281.71 L 366.68,281.66 L 367.19,281.6 L 368.08,281.38 L 368.08,281.38 L 369.65,281.05 L 371.17,280.6 L 371.17,280.6 L 373.18,280.21 L 373.18,280.21 L 373.8,280.04 L 374.36,279.98 L 374.36,279.98 L 375.2,279.98 L 375.2,279.98 L 375.98,279.98 L 375.98,279.98 L 376.76,280.1 L 376.76,280.1 L 377.27,280.15 L 377.27,280.15 L 379.57,280.65 L 381.8,281.27 L 381.8,281.27 L 381.8,281.33 L 381.8,281.33 L 381.08,281.77 L 380.35,282.28 L 380.35,282.28 L 380.12,282.5 L 379.9,282.73 L 379.9,282.73 L 379.79,282.83 L 379.79,282.83 L 379.45,283.23 L 379.45,283.23 L 378.73,284.07 L 378.73,284.07 L 378.39,284.57 L 377.99,285.13 L 377.99,285.13 L 377.49,285.97 L 376.48,287.71 L 376.48,287.71 L 375.98,288.55 L 375.76,288.94 L 375.42,289.33 L 375.42,289.33 L 374.92,289.83 L 374.92,289.83 L 374.64,290.11 L 374.64,290.11 L 374.19,290.45 L 374.19,290.45 L 373.96,290.67 L 373.69,290.84 L 373.69,290.84 L 373.01,291.17 L 373.01,291.17 L 372.17,291.62 L 371.28,292.01 L 371.28,292.01 L 370.33,292.46 L 370.33,292.46 L 370.04,292.58 L 370.04,292.58 L 369.09,293.19 L 368.14,293.8 L 368.14,293.8 L 367.97,293.98 L 367.97,293.98 L 367.75,294.03 L 367.75,294.03 L 367.36,294.37 L 367.36,294.37 L 366.86,294.87 L 366.35,295.43 L 365.9,295.99 L 365.45,296.55 L 365.45,296.55 L 365.4,296.71 L 365.4,296.71 L 364.95,297.5 L 364.95,297.5 L 364.73,297.78 L 364.73,297.78 L 364.56,298.06 L 364.56,298.06 L 364.11,298.96 L 364.06,299.01 L 364.06,299.01 L 363.22,298.06 L 362.43,297.05 L 361.64,296.05 L 360.92,294.98 L 360.25,293.92 L 359.63,292.8 L 359.07,291.62 L 358.51,290.51 L 358.01,289.27 L 357.61,288.04 L 357.23,286.81 L 356.89,285.58 L 356.61,284.3 L 356.39,282.95 L 356.16,281.66 L 356.05,280.32 L 356.05,280.32 z"
           id="path2884"
           style="fill:#fcdb00;fill-opacity:1;fill-rule:evenodd;stroke:#fcdb00;stroke-width:0.12;stroke-linecap:round;stroke-linejoin:round;stroke-miterlimit:10;stroke-dasharray:none;stroke-opacity:1" />
        <path
           d="M 414.11,253.4 L 414.11,253.4 L 413.66,251.49 L 413.66,251.49 L 412.55,251.94 L 411.43,252.33 L 410.25,252.67 L 409.01,252.95 L 407.67,253.17 L 406.21,253.4 L 404.6,253.57 L 402.74,253.73 L 402.74,253.73 L 377.89,253.73 L 377.89,249.26 L 375.7,249.26 L 375.7,253.57 L 375.7,253.57 L 377.33,255.24 L 377.33,255.24 L 392.45,255.35 L 400.33,255.35 L 404.14,255.35 L 404.14,255.35 L 405.77,255.24 L 407.23,255.07 L 408.62,254.91 L 409.91,254.68 L 411.09,254.46 L 412.21,254.18 L 413.21,253.79 L 414.11,253.4 L 414.11,253.4 z M 368.36,263.64 L 368.36,263.64 L 367.81,263.86 L 367.19,264.03 L 366.57,264.09 L 365.95,264.09 L 365.29,263.98 L 364.61,263.86 L 363.22,263.42 L 361.7,262.91 L 360.86,262.69 L 360.02,262.46 L 359.07,262.3 L 358.12,262.18 L 357.11,262.13 L 355.99,262.13 L 355.99,240.19 L 416.68,240.19 L 416.68,255.86 L 416.68,255.86 L 416.63,258.83 L 416.63,261.8 L 416.63,261.8 L 415.57,261.51 L 414.56,261.35 L 414.56,261.35 L 413.21,261.29 L 413.21,261.29 L 412.66,261.35 L 411.98,261.46 L 410.8,261.73 L 410.8,261.73 L 410.02,262.01 L 409.24,262.35 L 409.24,262.35 L 408.4,262.69 L 407.62,263.08 L 407.62,263.08 L 406.89,263.3 L 406.89,263.3 L 406.16,263.53 L 406.16,263.53 L 405.66,263.64 L 405.15,263.69 L 404.14,263.75 L 404.14,263.75 L 404.54,263.3 L 405.55,262.24 L 408.46,259.1 L 412.88,254.46 L 412.88,254.46 L 411.76,254.74 L 410.64,254.96 L 409.46,255.19 L 408.35,255.35 L 405.99,255.58 L 403.7,255.69 L 403.7,255.69 L 377.89,255.75 L 377.89,255.75 L 386.11,263.8 L 385.78,263.8 L 385.78,263.8 L 376.04,254.18 L 366.91,245.17 L 368.25,243.82 L 367.02,242.6 L 363.32,246.18 L 364.61,247.41 L 365.9,246.07 L 365.9,246.07 L 383.76,263.69 L 383.76,263.69 L 383.65,263.69 L 383.54,263.64 L 383.54,263.64 L 375.37,255.8 L 375.37,255.8 L 371.5,255.69 L 366.91,255.58 L 366.91,255.58 L 363.61,255.41 L 363.61,255.41 L 362.88,255.3 L 361.87,255.07 L 360.8,254.8 L 360.3,254.68 L 359.91,254.51 L 359.91,254.51 L 364.11,258.99 L 368.36,263.64 L 368.36,263.64 z M 374.97,255.3 L 373.4,253.73 L 373.4,253.73 L 371.05,253.79 L 368.87,253.73 L 367.75,253.68 L 366.68,253.62 L 366.68,253.62 L 364.45,253.4 L 363.43,253.23 L 362.6,253.06 L 361.76,252.84 L 360.98,252.55 L 360.25,252.16 L 359.46,251.6 L 359.46,251.6 L 358.51,253.01 L 358.51,253.01 L 358.96,253.34 L 359.41,253.62 L 359.91,253.9 L 360.36,254.12 L 361.36,254.46 L 362.43,254.74 L 363.43,254.91 L 364.45,255.02 L 366.35,255.19 L 366.35,255.19 L 370.83,255.24 L 374.97,255.3 L 374.97,255.3 z"
           id="path2886"
           style="fill:#fcdb00;fill-opacity:1;fill-rule:evenodd;stroke:#fcdb00;stroke-width:0.12;stroke-linecap:round;stroke-linejoin:round;stroke-miterlimit:10;stroke-dasharray:none;stroke-opacity:1" />
        <path
           d="M 364.89,299.85 L 364.89,299.85 L 365.34,299.07 L 365.79,298.28 L 365.79,298.28 L 366.24,297.55 L 366.24,297.55 L 366.74,296.71 L 367.3,295.99 L 367.92,295.32 L 368.31,294.98 L 368.7,294.7 L 368.7,294.7 L 369.71,294.03 L 370.72,293.47 L 370.72,293.47 L 371.72,293.02 L 371.72,293.02 L 373.18,292.35 L 373.18,292.35 L 373.96,291.96 L 373.96,291.96 L 374.36,291.73 L 374.86,291.35 L 375.31,290.95 L 375.7,290.67 L 375.7,290.67 L 376.1,290.11 L 376.1,290.11 L 376.48,289.67 L 376.82,289.21 L 376.82,289.21 L 377.1,288.77 L 377.38,288.32 L 377.38,288.32 L 378.5,286.36 L 378.5,286.36 L 379.01,285.52 L 379.01,285.52 L 379.45,284.91 L 379.96,284.23 L 379.96,284.23 L 380.63,283.51 L 380.96,283.12 L 381.35,282.78 L 381.35,282.78 L 382.19,282.22 L 382.64,282 L 383.09,281.83 L 383.09,281.83 L 383.48,281.66 L 383.87,281.6 L 384.27,281.49 L 384.66,281.33 L 384.66,281.33 L 385.27,281.05 L 385.84,280.65 L 385.84,280.65 L 386.28,280.26 L 386.28,280.26 L 385.61,280.43 L 385.61,280.43 L 385.05,280.55 L 384.49,280.55 L 383.93,280.55 L 383.37,280.55 L 382.19,280.37 L 381.14,280.1 L 381.14,280.1 L 380.12,279.82 L 379.17,279.48 L 379.17,279.48 L 378.11,279.26 L 377.1,279.08 L 377.1,279.08 L 376.15,278.98 L 376.15,278.98 L 375.48,278.92 L 375.48,278.92 L 374.64,278.92 L 373.74,279.03 L 372.9,279.2 L 372.06,279.37 L 372.06,279.37 L 369.82,279.92 L 367.58,280.43 L 367.58,280.43 L 366.86,280.6 L 366.86,280.6 L 365.63,280.65 L 364.33,280.65 L 364.33,280.65 L 363.49,280.6 L 362.6,280.37 L 361.76,280.15 L 360.92,279.87 L 360.92,279.87 L 359.68,279.42 L 359.68,279.42 L 358.68,279.14 L 358.18,279.03 L 357.67,278.98 L 357.67,278.98 L 356.83,278.98 L 355.99,279.03 L 355.99,279.03 L 355.99,278.3 L 355.99,263.08 L 355.99,263.08 L 356.27,263.02 L 356.55,263.02 L 357.23,263.02 L 357.89,263.14 L 358.39,263.19 L 358.39,263.19 L 359.68,263.47 L 360.98,263.8 L 360.98,263.8 L 362.27,264.26 L 362.93,264.48 L 363.55,264.7 L 363.55,264.7 L 364.56,264.92 L 365.51,265.04 L 366.46,265.1 L 366.97,265.1 L 367.47,265.04 L 367.47,265.04 L 368.08,264.92 L 368.65,264.76 L 368.65,264.76 L 372.56,263.53 L 372.56,263.53 L 373.8,263.14 L 375.08,262.85 L 375.08,262.85 L 375.48,262.74 L 375.87,262.64 L 375.87,262.64 L 376.54,262.64 L 376.54,262.64 L 377.38,262.64 L 377.77,262.64 L 378.22,262.69 L 378.22,262.69 L 379.17,262.91 L 379.17,262.91 L 379.9,263.08 L 380.57,263.36 L 381.86,263.86 L 381.86,263.86 L 382.48,264.09 L 383.09,264.26 L 384.38,264.48 L 384.38,264.48 L 384.71,264.76 L 385,265.1 L 385,265.1 L 385.22,265.43 L 385.5,265.82 L 385.5,265.82 L 386.11,266.77 L 386.39,267.28 L 386.62,267.84 L 386.62,267.84 L 386.84,268.45 L 387.01,269.12 L 387.01,269.12 L 387.07,269.35 L 387.12,269.63 L 387.12,269.63 L 391.88,274.33 L 395.3,277.8 L 397.26,279.76 L 397.26,279.76 L 397.48,279.59 L 397.93,279.2 L 399.22,277.96 L 401.17,276.07 L 401.17,276.07 L 395.97,271.19 L 390.7,266.39 L 390.7,266.39 L 390.37,266.39 L 389.98,266.33 L 389.59,266.21 L 389.14,265.99 L 388.07,265.37 L 386.73,264.53 L 386.73,264.53 L 387.68,264.42 L 387.68,264.42 L 388.86,264.2 L 388.86,264.2 L 389.59,264.09 L 389.59,264.09 L 390.26,263.92 L 390.93,263.75 L 392.27,263.36 L 392.27,263.36 L 393.11,263.19 L 393.11,263.19 L 393.56,263.08 L 394.01,262.96 L 394.01,262.96 L 394.45,262.96 L 394.45,262.96 L 395.13,262.91 L 395.86,262.91 L 395.86,262.91 L 396.42,262.96 L 396.98,263.08 L 398.1,263.42 L 398.1,263.42 L 400.17,264.03 L 400.17,264.03 L 401.06,264.31 L 401.9,264.59 L 402.8,264.76 L 403.25,264.87 L 403.76,264.87 L 403.76,264.87 L 404.2,264.87 L 404.2,264.87 L 405.04,264.82 L 405.83,264.76 L 405.83,264.76 L 406.67,264.53 L 407.51,264.26 L 409.07,263.64 L 409.07,263.64 L 409.96,263.3 L 409.96,263.3 L 410.86,263.02 L 411.76,262.74 L 411.76,262.74 L 412.43,262.64 L 412.43,262.64 L 412.82,262.58 L 412.82,262.58 L 413.5,262.58 L 414.11,262.58 L 414.11,262.58 L 414.61,262.58 L 415.12,262.64 L 415.12,262.64 L 415.85,262.85 L 416.46,263.02 L 416.46,263.02 L 416.68,263.08 L 416.68,278.3 L 416.68,278.53 L 416.68,278.53 L 415.62,278.53 L 415.12,278.47 L 414.67,278.53 L 414.67,278.53 L 414,278.64 L 414,278.64 L 413.21,278.75 L 412.43,278.98 L 412.43,278.98 L 411.26,279.37 L 410.14,279.82 L 410.14,279.82 L 409.58,280.04 L 409.01,280.15 L 407.89,280.32 L 407.89,280.32 L 407.45,280.37 L 407,280.43 L 407,280.43 L 406.39,280.43 L 406.39,280.43 L 405.38,280.37 L 405.38,280.37 L 404.71,280.32 L 404.09,280.21 L 404.09,280.21 L 403.14,280.1 L 402.24,279.87 L 401.35,279.64 L 400.45,279.42 L 400.45,279.42 L 400.33,279.87 L 400.17,280.32 L 399.95,280.76 L 399.67,281.21 L 399.67,281.21 L 399.33,281.66 L 399.33,281.66 L 398.94,282.17 L 398.94,282.17 L 398.54,282.67 L 398.54,282.67 L 397.93,283.28 L 397.31,283.9 L 397.31,283.9 L 396.81,284.23 L 396.31,284.57 L 395.3,285.24 L 395.3,285.24 L 394.74,285.58 L 394.18,285.92 L 394.18,285.92 L 393.45,286.25 L 392.77,286.58 L 392.05,286.92 L 391.43,287.37 L 391.43,287.37 L 391.04,287.76 L 391.04,287.76 L 390.54,288.15 L 390.09,288.55 L 390.09,288.55 L 389.75,288.88 L 389.53,289.21 L 389.53,289.21 L 389.08,289.72 L 389.08,289.72 L 388.58,290.51 L 388.07,291.35 L 388.07,291.35 L 387.68,291.9 L 387.68,291.9 L 387.23,292.8 L 386.73,293.69 L 386.73,293.69 L 386.23,294.48 L 386.23,294.48 L 385.33,295.82 L 385.33,295.82 L 384.77,296.6 L 384.16,297.33 L 384.16,297.33 L 383.82,297.67 L 383.48,298.01 L 382.76,298.62 L 382.76,298.62 L 382.14,299.18 L 381.52,299.63 L 381.52,299.63 L 380.91,299.96 L 380.3,300.3 L 380.3,300.3 L 379.57,300.69 L 378.83,301.19 L 378.83,301.19 L 378.73,301.3 L 378.73,301.3 L 378.39,301.58 L 378.39,301.58 L 378.05,301.81 L 377.71,302.03 L 377.71,302.03 L 377.27,302.42 L 377.27,302.42 L 376.88,302.82 L 376.88,302.82 L 376.37,303.38 L 375.98,303.94 L 375.98,303.94 L 375.42,304.78 L 375.42,304.78 L 375.03,305.62 L 374.64,306.46 L 374.64,306.46 L 373.24,305.84 L 371.95,305.17 L 370.66,304.39 L 369.43,303.6 L 368.2,302.76 L 367.08,301.87 L 365.95,300.86 L 364.89,299.85 L 364.89,299.85 z"
           id="path2888"
           style="fill:#0093dd;fill-opacity:1;fill-rule:evenodd;stroke:#0093dd;stroke-width:0.12;stroke-linecap:round;stroke-linejoin:round;stroke-miterlimit:10;stroke-dasharray:none;stroke-opacity:1" />
      </g>
    </g>
  </g>
</svg>
<!-- version: 20090314, original size: 79.375 89.275002, border: 3% -->
